docs/images/fb.svg

<svg width="30" height="30" viewBox="0 0 30 30" fill="none" xmlns="http://www.w3.org/2000/svg">
<path d="M15 0C6.74999 0 0 6.76205 0 15.0904C0 22.6205 5.48999 28.8705 12.66 30V19.4578H8.84999V15.0904H12.66V11.762C12.66 7.98193 14.895 5.90361 18.33 5.90361C19.965 5.90361 21.675 6.18976 21.675 6.18976V9.90964H19.785C17.925 9.90964 17.34 11.0693 17.34 12.259V15.0904H21.51L20.835 19.4578H17.34V30C20.8746 29.4395 24.0933 27.6288 26.4149 24.8947C28.7364 22.1606 30.008 18.6832 30 15.0904C30 6.76205 23.25 0 15 0Z" fill="#999999"/>
</svg>

<svg width="30" height="30" fill="none" xmlns="http://www.w3.org/2000/svg"><path d="M15 0C6.75 0 0 6.762 0 15.09 0 22.62 5.49 28.87 12.66 30V19.458H8.85V15.09h3.81v-3.328c0-3.78 2.235-5.858 5.67-5.858 1.635 0 3.345.286 3.345.286v3.72h-1.89c-1.86 0-2.445 1.16-2.445 2.349v2.831h4.17l-.675 4.368H17.34V30a14.985 14.985 0 009.075-5.105A15.097 15.097 0 0030 15.09C30 6.762 23.25 0 15 0z" fill="#999"/></svg>
